packages/tokens/icons/sort/size32Px.svg

<svg viewBox="0 0 32 32" fill="none" xmlns="http://www.w3.org/2000/svg" width="1em" height="1em"><path d="M15.6464 25.6464C15.8417 25.8417 16.1583 25.8417 16.3536 25.6464L23.1464 18.8536C23.4614 18.5386 23.2383 18 22.7929 18L9.20711 18C8.76165 18 8.53857 18.5386 8.85355 18.8536L15.6464 25.6464Z" fill="currentColor"/><path d="M15.6465 6.35355C15.8417 6.15829 16.1583 6.15829 16.3536 6.35355L23.1464 13.1464C23.4614 13.4614 23.2383 14 22.7929 14L9.20711 14C8.76165 14 8.53857 13.4614 8.85355 13.1464L15.6465 6.35355Z" fill="currentColor"/></svg>

<svg xmlns="http://www.w3.org/2000/svg" fill="none" viewBox="0 0 32 32" width="1em" height="1em"><path fill="currentColor" d="M15.646 25.646a.5.5 0 0 0 .708 0l6.792-6.792a.5.5 0 0 0-.353-.854H9.207a.5.5 0 0 0-.353.854l6.792 6.792Zm0-19.292a.5.5 0 0 1 .708 0l6.792 6.792a.5.5 0 0 1-.353.854H9.207a.5.5 0 0 1-.353-.854l6.793-6.792Z"/></svg>
